!!!COM: Ernest Chausson
!!!CNT: Francais
!!!TXO: Francais
!!!OTL: "Serre chaude"
!!!LYR: Maeterlinck
!!!OPR: Serres chaude
!!!OPS: Op. 24
!!!ONM: No. 1
!!!ENC: Emily Thomas
!!!YOR: CD Sheet Music French Art Songs, The Ultimate Collection
!!!YOR: CD Sheet Music, LLC 2003
!!!ODT: 1896/
!!NB: Vocal melody and text encoded.
**kern	**silbe
=1	=1
*clefG2	*
*k[f#c#]	*
*M3/4	*
*MM[Mouvemente]	*
2.r	.
=2	=2
4r	.
4r	.
{4f#	{O
=3	=3
2.g#	serre
=4	=4
8e	au
8e	mi-
4e	-lieu
8e	des
8e	fo-
=5	=5
[2d	re^ts!
8d]}	|}
8r	.
=6	=6
4r	.
8r	.
{4b	{Et
8b	vos
=7	=7
4.cc#	por-
8g	-tes
12g	a\
12g	ja-
12g	-mais
=8	=8
2f#	clo-
4f#}	-ses!}
=9	=9
2.r	.
=10	=10
8r	.
{8b	{Et
8b	tout
8b	ce
8b	qu'il
8b	y
=11	=11
4.ccn	a
8a-	sous
12a-	vo-
12g	-tre
12fn	cou-
=12	=12
2fn	-po-
4fn}	-le!}
=13	=13
4r	.
8r	.
{8f#	{Et
8f#	dans
8dd	mon
=14	=14
[2.ee-	a^-
=15	=15
4ee-]	|
4b-}	-me}
4r	.
=16	=16
8r	.
{8bn	{en
8g#	vos
8g#	a-
8f#	-na-
8d	-lo-
=17	=17
2d}	-dies!}
4r	.
=18	=18
2.r	.
=19	=19
2.r	.
=20	=20
2.r	.
=21	=21
8r	.
{16f#	{Les
16f#	pen-
[4f#	-se/es
16f#]	|
16f#	d'u-
16f#	-ne
16f#	prin-
=22	=22
16f#	-ces-
16f#	-se
16f#	qui
16f#	a
4g#}	faim.}
4r	.
=23	=23
8r	.
16r	.
{16a	{L'en-
4a	-nui
12a	d'un
12a	ma-
12a	-te-
=24	=24
4a	-lot
12a	dans
12a	le
12a	de/-
4g}	-sert,}
=25	=25
16r	.
{16ccn	{U-
16ccn	-ne
16ccn	mu-
8ccn	-si-
16ccn	-que
16ccn	de
4b	cui-
=26	=26
12b	-vre
12b	aux
12b	fe-
8cc#	-ne^-
8cc#	-tres
12cc#	des
12cc#	in-
12ee	-cu-
=27	=27
[2.ee	-ra-
=28	=28
4ee]	|
4g#}	-bles.}
4r	.
=29	=29
8r	.
{8a	{Al-
4.b-	-lez
8a	aux
=30	=30
8.a	an-
16fn	-gles
8e	les
8d	plus
8d	tie\-
8d}	-des!}
=31	=31
2.r	.
=32	=32
4r	.
4r	.
{8a-	{On
8a-	di-
=33	=33
8b-	-rait
16b-	u-
16b-	-ne
4cc-	femme
12fn	e/-
12fn	-va-
12b-	-nou-
=34	=34
[4b-	-ie
16b-]	|
16g	un
24g	jour
24g	de
24g	moi-
4e}	-sson,}
=35	=35
4r	.
8r	.
{16f#	Il
16f#	y
16f#	a
16f#	des
16f#	pos-
16f#	-til-
=36	=36
8g	-lons
16g	dans
16g	la
12g	cour
12a	de
12b-	l'hos-
8b-	-pi-
8b-}	ce.}
=37	=37
4r	.
8r	.
{8dd-	{Au
4dd-	loin
=38	=38
12ddn	passÈ
12ddn	un
12ddn	chas0
8ddn	-seur
8dd	d'e/-
[4ddn	-lan
=39	=39
12ddn]	|
12dd	de-
12dd	-ve-
12dd	-nu
12dd	in-
12ffn	-fie-
[4ffn	-mier
=40	=40
4ffn]}	|}
4r	.
4r	.
=41	=41
4r	.
8r	.
{8a-	{Ex-
8a-	-a-
8a-	-mi-
=42	=42
8.b-	-nez
16b-	au-
8b-	-clair
8b-	de
[4dd-	lu-
=43	=43
4dd-]	|
8ccn}	-ne.}
8r	.
4r	.
=44	=44
4r	.
{[2dd	{Oh!
=45	=45
4dd]	|
8.g#	rien
16g#	n'y-
12g#	-est
12g#	a\
12g#	sa
=46	=46
2b	pla-
4b}	-ce.}
=47	=47
2.r	.
=48	=48
12r	.
{12g	On
12g	di-
12g	-rait
12g	u-
12g	-ne
8b	fol-
[8g	-le
=49	=49
16g]	|
16g	de-
16g	-vant
16g	les
8g	ju-
8g}	-ges,}
4r	.
=50	=50
12r	.
{12a	{Un
12a	na-
12a	-vi-
12a	-re
12a	de-
4a	-guerre
=51	=51
12b	a\
12ccn	plei-
12dd	-new
4.dd	voi-
8fn}	-les}
=52	=52
4r	.
{4fn	{Sur
8fn	un
8fn	ca-
=53	=53
2e-}	-nal}
4r	.
=54	=54
{8g	{Des
8g	oi-
8g	-seaux
8g	de
8a-	nuit
16b-	sur
16ccn	des
=55	=55
4ccn}	lis}
4r	.
{4dd-	{Un
=56	=56
8ee-	glas
16ee-	vers
16ee-	mi-
4ee-	-di
8r	.
8een	(La\-
=57	=57
[2.gg	-ba\s
=58	=58
4gg]	|
8ccn	sous
8g	ces
8g	clo-
8g}	-ches!)}
=59	=59
4r	.
{8b-	{Une
8b-	e/-
16bn	-ta
16bn	pe
16bn	de
16bn	ma-
=60	=60
8b-	-la-
8b-	-des
8r	.
8b-	dans
8b-	la
8b-	prai-
=61	=61
4a}	-rie}
8r	.
{16b	{Une
16b	o-
8.b	-deur
16b	d'e/-
=62	=62
4.dd	-ther
8dd	un
12dd	jour
12dd	de
12dd	so-
=63	=63
2aa}	-leil}
4r	.
=64	=64
2.r	.
=65	=65
8r	.
{8ccn	{Mon
[2ccn	Die!
=66	=66
2.ccn]}	|}
=67	=67
4r	.
4r	.
{4ee-	{Mon
=68	=68
[2.ee	Dieu!
=69	=69
2.ee]}	|}
=70	=70
*M4/4	*
4r	.
{4ff#	{Quand
4ff#	au-
4ff#	-rons-
=71	=71
2ff#	-nous
4ee	|
4dd	la
=72	=72
[2cc#	pluie
8cc#]	|
4dd	Et
8ee	la
=73	=73
[2ff#	neige
8ff#]	|
4ff#	Et
8ff#	le
=74	=74
2.dd	vent
8ccn	dans
8ccn	la
=75	=75
2.b	ser-
4f#	|
=76	=76
2f#}	-re!}
2r	.
==	==
*-	*-
